X:1
T: Miss Douglas's Strathspey
T:Original version
C:R. Mackintosh
R:Strathspey
Q: 128
K:G
M:4/4
L:1/16
|:d4 B2Bc dG3 BG3|Ec3 A3G FD3 D2Bc|d4 Bg3 dG3 BG3|EA3 DF3 G4 G4|
d4 B2Bc dG3 BG3|Ec3 A3G FD3 D2Bc|d4 Bg3 dG3 BG3|EA3 DF3 G4 G4|
dg3 g3f ea3 a3g|fd3 ef3 g3a gG3|dg3 g3f ea3 a3g|fd3 ef3 ggg2 g3a|
bg3 af3 ge3 fd3|ec3 dB3 A3B ce3|d4 Bg3 dG3 BG3|Ec3 BAGF G4 G4:|
